view/frontend/web/svg/awesomeicons6/solid/rupiah-sign.svg

<svg xmlns="http://www.w3.org/2000/svg" fill="currentColor" viewBox="0 0 512 512"><!--! Font Awesome Free 6.4.0 by @fontawesome - https://fontawesome.com License - https://fontawesome.com/license/free (Icons: CC BY 4.0, Fonts: SIL OFL 1.1, Code: MIT License) Copyright 2023 Fonticons, Inc. --><path d="M0 64C0 46.3 14.3 32 32 32h80c79.5 0 144 64.5 144 144c0 58.8-35.2 109.3-85.7 131.7l51.4 128.4c6.6 16.4-1.4 35-17.8 41.6s-35-1.4-41.6-17.8L106.3 320H64V448c0 17.7-14.3 32-32 32s-32-14.3-32-32V288 64zM64 256h48c44.2 0 80-35.8 80-80s-35.8-80-80-80H64V256zm256-96h80c61.9 0 112 50.1 112 112s-50.1 112-112 112H352v96c0 17.7-14.3 32-32 32s-32-14.3-32-32V352 192c0-17.7 14.3-32 32-32zm80 160c26.5 0 48-21.5 48-48s-21.5-48-48-48H352v96h48z"/></svg>

<svg xmlns="http://www.w3.org/2000/svg" fill="currentColor" viewBox="0 0 512 512"><!--! Font Awesome Free 6.1.1 by @fontawesome - https://fontawesome.com License - https://fontawesome.com/license/free (Icons: CC BY 4.0, Fonts: SIL OFL 1.1, Code: MIT License) Copyright 2022 Fonticons, Inc. --><path d="M.0003 64C.0003 46.33 14.33 32 32 32H112C191.5 32 256 96.47 256 176C256 234.8 220.8 285.3 170.3 307.7L221.7 436.1C228.3 452.5 220.3 471.1 203.9 477.7C187.5 484.3 168.9 476.3 162.3 459.9L106.3 320H64V448C64 465.7 49.67 480 32 480C14.33 480 0 465.7 0 448L.0003 64zM64 256H112C156.2 256 192 220.2 192 176C192 131.8 156.2 96 112 96H64V256zM400 160C461.9 160 512 210.1 512 272C512 333.9 461.9 384 400 384H352V480C352 497.7 337.7 512 320 512C302.3 512 288 497.7 288 480V192C288 174.3 302.3 160 320 160H400zM448 272C448 245.5 426.5 224 400 224H352V320H400C426.5 320 448 298.5 448 272z"/></svg>
